bakery/img/linkedin.svg

<svg width="31" height="31" viewBox="0 0 31 31" fill="none" xmlns="http://www.w3.org/2000/svg">
<path d="M15.5 31.001C24.0604 31.001 31 24.0614 31 15.501C31 6.94056 24.0604 0.000976562 15.5 0.000976562C6.93959 0.000976562 0 6.94056 0 15.501C0 24.0614 6.93959 31.001 15.5 31.001Z" fill="white"/>
<path d="M24.7612 16.749V23.1393H21.0562V17.1772C21.0562 15.6802 20.5213 14.6579 19.1798 14.6579C18.1561 14.6579 17.548 15.3462 17.2794 16.0126C17.1819 16.2508 17.1568 16.5815 17.1568 16.9156V23.139H13.4516C13.4516 23.139 13.5013 13.0413 13.4516 11.996H17.157V13.5751C17.1496 13.5875 17.1391 13.5997 17.1324 13.6115H17.157V13.5751C17.6494 12.8175 18.5275 11.7344 20.4962 11.7344C22.9337 11.7344 24.7612 13.327 24.7612 16.749ZM9.57558 6.62469C8.30819 6.62469 7.479 7.45664 7.479 8.54969C7.479 9.61953 8.28415 10.4755 9.52696 10.4755H9.55099C10.8433 10.4755 11.6467 9.61953 11.6467 8.54969C11.6222 7.45664 10.8433 6.62469 9.57558 6.62469ZM7.69922 23.1393H11.403V11.996H7.69922V23.1393Z" fill="#412D22"/>
</svg>

<svg width="31" height="31" fill="none" xmlns="http://www.w3.org/2000/svg"><path d="M15.5 31.001c8.56 0 15.5-6.94 15.5-15.5 0-8.56-6.94-15.5-15.5-15.5C6.94.001 0 6.941 0 15.501c0 8.56 6.94 15.5 15.5 15.5z" fill="#fff"/><path d="M24.761 16.749v6.39h-3.705v-5.962c0-1.497-.535-2.52-1.876-2.52-1.024 0-1.632.69-1.9 1.356-.098.238-.123.568-.123.903v6.223h-3.705s.05-10.098 0-11.143h3.705v1.58l-.025.035h.025v-.036c.492-.757 1.37-1.84 3.34-1.84 2.437 0 4.264 1.592 4.264 5.014zM9.576 6.625c-1.268 0-2.097.832-2.097 1.925 0 1.07.805 1.925 2.048 1.925h.024c1.292 0 2.096-.855 2.096-1.925-.025-1.093-.804-1.925-2.071-1.925zM7.699 23.139h3.704V11.996H7.699v11.143z" fill="#412D22"/></svg>
